X: 16136
T: Green Grow The Rushes
R: barndance
M: 4/4
K: Gmajor
M:2/4
|:G2 GA|BG G2|AB cd|eA A2|cd ec|
Bc dB|1 Ac B/c/B/A/|GE E2:|2 Ac BA|B/A/G G2||
|:g>a gf|ed B2|ea ab|ag ef|g>a gf|
ed BG|1 Ac B/c/B/A/|GE E2:|2 Ac BA|B/A/G G2||

